X: 710
T: Dingzui diao
L: 1/8
M: 2/4
K: G
e< e e B [I:setbarnb 1]| 
e2d B | 
e B B A | 
G3E | 
d e e d | 
e d B A | 
B F E G | 
D4 | 
G E G A | 
B B d B | 
A G E D/ E/ | 
G4 | 
d e e d | 
e d B A | 
A F E G | 
D4 |]

@@@ Tune index: 9584
